X:493
%%etbk:tnset id:216,pos:2,rep:3x,ant:
%%etbk:wsite http://thesession.org/tunes/11222
%%etbk:video src:ytube,cde:OxFL9WN5J4I,desc:second tune (-1)
%%etbk:color #ffccbf
%%etbk:pldat 2016-06-13T17:27,2015-12-31T15:00,2015-12-29T16:31,2015-12-24T15:12,2015-12-22T17:24,2014-09-25T18:52,2014-05-09T19:00,2014-05-07T16:53,2014-03-20T19:07,2013-11-23T16:23,2013-11-16T16:14,2013-11-12T18:41,2013-11-07T16:37,2013-11-04T18:58,2013-10-09T17:30,2013-10-02T17:26,2013-09-30T18:59,2013-09-29T16:37,2013-09-16T14:58,2013-09-11T18:58
T:Drunraney Lass
Z: Piano Box Version by Martin Fleischmann
H: Created 2013-09-11 /  Last Modified 2016-06-13
M:6/8
R:Jig
K:Ador
|:"am"!3!A2A ABA|"em"!2!G!1!EE !2!G2!4!B|"am"!3!A2!1!A AB!4!d|"em"!5!edB edB|
"am"!1!A2!3!A ABA|"em"!2!G!1!EE !2!GG!4!B|"G"!5!d!4!B!3!A !2!GAB|1!5!dGd !5!d!4!B!3!A:||2!5!de!3!d !3!d!1!B!3!d:||
|:"G"!1!d!3!e!3!f !4!g2!4!g|!5!agf g2!2!e|!1!def !4!g2d|"D"!2!e!1!d!2!B !3!d!2!B!1!A|
"G"!3!d!4!e!3!f !4!g2g|!5!a!4!g!3!f !4!g!3!ga|!5!bag !4!agf|!4!gfe !3!f!1!d!2!B:||


